X:1
T:Title
%%score { 1 | 2 }
L:1/8
Q:1/4=110
M:3/4
K:Eb
V:1 treble nm="Grand Piano"
V:2 bass 
V:1
 [GB]2 [GB]2 [GB]2 | [GB]3 [FA] [EG]2 | [EG]2 D2 F2 | E6 | [DF]2 [DF]2 [DF]2 | [DF]3 [EG] [FA]2 | %6
w: J.~M.~Black * *||||||
 [FA]2 [EG]2 [DF]2 | G6 | G2 G2 [FA]2 | [GB]3 [GB] [GB]2 | [GB]2 [GB]2 [B_d]2 | c6 | c2 c2 c2 | %13
w: |||||||
 B3 A G2 | [EG]2 [EG]2 [DF]2 | E6 |[M:6/8] GGG G2 F | E3 E3 | D2 E [DF]2 [EG] | [FA]6 | %20
w: |||||||
 [FA][FA][FA] [FA]2 [FA] | [FA]3 [DF]3 | [EG]2 [FA] [GB]2 [Ac] | [GB]6 | [GB][GB][GB] [GB]2 [GB] | %25
w: |||||
 [GB]3 G3 | G2 G A2 B | c6 | ddd d2 c |[M:15/16] [GB]3 [Ge]3/2- [Ge]3 | %30
w: |||||
[M:3/4] [Fd]2 [Fd] [Ac]2 [Ad][Q:1/4=108][Q:1/4=107][Q:1/4=105][Q:1/4=104][Q:1/4=102][Q:1/4=100][Q:1/4=99][Q:1/4=97][Q:1/4=95][Q:1/4=94][Q:1/4=92][Q:1/4=91][Q:1/4=89][Q:1/4=87][Q:1/4=86][Q:1/4=84] | %31
w: |
 [Ge]6 |] %32
w: |
V:2
 [E,E]2 [E,E]2 [E,E]2 | [E,E]3 [E,B,] [E,B,]2 | [B,,B,]2 [B,,F,B,]2 [B,,A,B,]2 | [E,G,B,]6 | %4
 [B,,B,]2 [B,,B,]2 [B,,B,]2 | [B,,B,]3 [B,,B,] [B,,B,]2 | [B,,B,]2 [B,,B,]2 [B,,B,]2 | [E,B,E]6 | %8
 [E,B,E]2 [E,B,E]2 [E,B,]2 | [E,E]3 [E,E] [E,E]2 | [E,E]2 [E,E]2[K:treble] [G,E]2 | [A,EA]6 | %12
 [=A,E_G]2 [A,EG]2 [A,EG]2 | [B,EG]3 [B,F][K:bass] [B,E]2 | [B,,B,]2 [B,,B,]2 [B,,A,]2 | %15
 [E,G,B,]6 |[M:6/8] [E,B,E][E,B,E][E,B,E] [E,B,E]2 [E,A,B,] | [E,G,B,]3 [E,G,B,]3 | %18
 [B,,F,B,]2 [B,,G,B,] [B,,B,]2 [B,,B,] | [B,,B,]6 | [B,,B,][B,,B,][B,,B,] [B,,B,]2 [B,,B,] | %21
 [B,,B,]3 [B,,B,]3 | [E,B,]2 [E,B,] [E,E]2 [E,E] | [E,E]6 | [E,E][E,E][E,E] [E,E]2 [E,E] | %25
 [E,E]3 [E,B,E]3 | [E,B,E]2 [E,B,E] [F,B,D]2[K:treble] [G,E] | [A,EA]6 | %28
 [B,DA][B,FA][B,FA] [B,FA]2 [B,DA] |[M:15/16][K:bass] [E,E]3 [E,B,]3/2- [E,B,]3 | %30
[M:3/4] [B,,B,]2 [B,,B,] [B,,B,]2 [B,,B,] | [E,B,]6 |] %32

